z_dist/img/icons/crypto/chainlink-LINK.svg

<svg width="64" height="64" viewBox="0 0 64 64" fill="none" xmlns="http://www.w3.org/2000/svg">
<rect width="64" height="64" rx="4" fill="#2A5ADA"/>
<path fill-rule="evenodd" clip-rule="evenodd" d="M27.9144 12.9175L31.8288 10.6667L35.7432 12.9175L46.4098 19.0827L50.3242 21.3334V42.6667L46.4098 44.9175L35.841 51.0826L31.9266 53.3334L28.0123 51.0826L17.2477 44.9175L13.3334 42.6667V21.3334L17.2477 19.0827L27.9144 12.9175ZM21.1621 25.8349V38.1652L31.8288 44.3304L42.4955 38.1652V25.8349L31.8288 19.6698L21.1621 25.8349Z" fill="white"/>
</svg>

<svg width="64" height="64" fill="none" xmlns="http://www.w3.org/2000/svg"><rect width="64" height="64" rx="4" fill="#2A5ADA"/><path fill-rule="evenodd" clip-rule="evenodd" d="M27.914 12.918l3.915-2.251 3.914 2.25 10.667 6.166 3.914 2.25v21.334l-3.914 2.25-10.569 6.166-3.914 2.25-3.915-2.25-10.764-6.166-3.915-2.25V21.333l3.915-2.25 10.666-6.165zm-6.752 12.917v12.33L31.83 44.33l10.666-6.165v-12.33L31.83 19.67l-10.667 6.165z" fill="#fff"/></svg>
